!!!OTL: Lieber ins Wasser
!!!OTL-incipit:Ich ging mal durch eine gruene Wies',
!!!ARE: Europa, Mitteleuropa, Deutschland / France, Lothringen, Kr. Forbach,
!!    Weiler
!!!YOR: 6, S. 154
!!    1928 aufgezeichnet
!!!SCT: Q0132
!!!TXL: @@DE
!!!YEM: Copyright 1995, estate of Helmut Schaffrath.
**kern	**text
*ICvox	*
!! Mixed meters:  6/4; 9/4
*M6/4	*
*k[f#]	*
*e:	*
{4d	1._Jch
=1	=1
2e	ging
4d	mal
2e	durch
8dL	ei-
8dJ	-ne
=2	=2
(4g	grü-
4a)	.
(8bL	-ne
8aJ)	.
2g}	Wies',
{4d	da
=3	=3
4g	fan-
4g	-den
8aL	sie
8aJ	nichts
4cc	an-
4b	-dres
4a	als
=4	=4
4g	Was-
4a	-ser
4b	und
2a}	Fließ,
{(8aL	sie
8gJ)	.
=5	=5
2a	wa-
4dd	-ren
(4cc	müd',
4b)	.
4a	sie
=6	=6
2g	wol-
4e	-len
4f	ru-
4e}	-hen,
{4e	sie
=7	=7
*M9/4	*
4f	setz-
4e	-ten
4d	sich
4g	nie-
4f#	-der
4g	an
2a	ei-
4f#	-nen
=8	=8
*M6/4	*
2.e	Brun-
2e}	-nen.
{(8aL	sie
8gJ)	.
=9	=9
2a	wa-
4dd	-ren
(4cc	müd',
4b)	.
4a	sie
=10	=10
2g	wol-
4e	-len
4f	ru-
4e}	-hen,
{4e	sie
=11	=11
*M9/4	*
4f	setz-
4e	-ten
4d	sich
4g	nie-
4f#	-der
4g	an
2a	ei-
4f#	-nen
=12	=12
*M6/4	*
2.e	Brun-
2e}	-nen.
==	==
!!!Ag: Ballade, Noetigung, Flucht
!!!ONB: ESAC (Essen Associative Code) Database: BALLADE
!!!AMT: irregular
!!!AIN: vox
!!!EED: Helmut Schaffrath
!!!EEV: 1.0
!!@@COMMENT:"Pinck, Weiten 4. 30. Nr. 20."
!!@@END:
!!!source: Deutsche Volkslieder mit ihren Melodien Balladen. Herausgegeben vom Deutschen Volksliedarchiv. Sechster Band. Freiburg/Breisgau 1976.
!!!page: 154
!!!ENC: Anna Maria Matuszewska
!!!EEV: 2025/03/06
*-	*-
